gama.ui.shared/icons_svg/light/navigator/file.move.svg

<svg height="25" viewBox="-910.181 -3707.499 25 25" width="25" xmlns="http://www.w3.org/2000/svg"><g fill="none"><path d="m-905.8407-3706.9985h16.32c2.1208 0 3.84 1.7192 3.84 3.84v16.32c0 2.1207-1.7192 3.84-3.84 3.84h-16.32c-2.1207 0-3.84-1.7193-3.84-3.84v-16.32c0-2.1208 1.7193-3.84 3.84-3.84z" fill="#fff"/><path d="m-905.8407-3706.9985h16.32c2.1208 0 3.84 1.7192 3.84 3.84v16.32c0 2.1207-1.7192 3.84-3.84 3.84h-16.32c-2.1207 0-3.84-1.7193-3.84-3.84v-16.32c0-2.1208 1.7193-3.84 3.84-3.84z" stroke="#000" stroke-linecap="round" stroke-linejoin="round" stroke-width=".25"/><path d="m-895.8463-3694.9985h-6.2344c-.2209 0-.4-.1791-.4-.4 0-.221.1791-.4.4-.4h6.2344l-1.7172-1.7172c-.1562-.1563-.1562-.4093 0-.5657.1562-.1562.4095-.1562.5657 0l2.4 2.4c.1562.1564.1562.4094 0 .5657l-2.4 2.4c-.1562.1562-.4095.1562-.5657 0-.1562-.1563-.1562-.4093 0-.5657zm-3.4344-5.2c0 .2209-.179.4-.4.4-.2209 0-.4-.1791-.4-.4 0-1.1045.8955-2 2-2h6.4c1.1046 0 2 .8955 2 2v10.4c0 1.1045-.8954 2-2 2h-6.4c-1.1045 0-2-.8955-2-2 0-.221.1791-.4.4-.4.221 0 .4.179.4.4 0 .6625.5373 1.2 1.2 1.2h6.4c.6628 0 1.2-.5375 1.2-1.2v-10.4c0-.6628-.5372-1.2-1.2-1.2h-6.4c-.6627 0-1.2.5372-1.2 1.2zm-2 11.6c.221 0 .4.179.4.4 0 .2209-.179.4-.4.4h-2.4c-1.1045 0-2-.8955-2-2v-10.4c0-1.1045.8955-2 2-2h2.4c.221 0 .4.179.4.4 0 .2209-.179.4-.4.4h-2.4c-.6627 0-1.2.5372-1.2 1.2v10.4c0 .6625.5373 1.2 1.2 1.2z" fill="#5a76a2"/></g></svg>

<?xml version="1.0" encoding="UTF-8" standalone="no"?>
<!DOCTYPE svg PUBLIC "-//W3C//DTD SVG 1.1//EN" "http://www.w3.org/Graphics/SVG/1.1/DTD/svg11.dtd">
<svg version="1.1" xmlns="http://www.w3.org/2000/svg" xmlns:xl="http://www.w3.org/1999/xlink" xmlns:dc="http://purl.org/dc/elements/1.1/" viewBox="-910.1807 -3707.4985 25 25" width="25" height="25">
  <defs/>
  <g id="SOURCES" stroke-dasharray="none" fill="none" stroke="none" fill-opacity="1" stroke-opacity="1">
    <title>SOURCES</title>
    <g id="SOURCES_Calque_1">
      <title>Calque 1</title>
      <g id="Graphic_6390">
        <title>views/view.other</title>
        <path d="M -905.8407 -3706.9985 L -889.5207 -3706.9985 C -887.3999 -3706.9985 -885.6807 -3705.2793 -885.6807 -3703.1585 L -885.6807 -3686.8385 C -885.6807 -3684.7178 -887.3999 -3682.9985 -889.5207 -3682.9985 L -905.8407 -3682.9985 C -907.9614 -3682.9985 -909.6807 -3684.7178 -909.6807 -3686.8385 L -909.6807 -3703.1585 C -909.6807 -3705.2793 -907.9614 -3706.9985 -905.8407 -3706.9985 Z" fill="white"/>
        <path d="M -905.8407 -3706.9985 L -889.5207 -3706.9985 C -887.3999 -3706.9985 -885.6807 -3705.2793 -885.6807 -3703.1585 L -885.6807 -3686.8385 C -885.6807 -3684.7178 -887.3999 -3682.9985 -889.5207 -3682.9985 L -905.8407 -3682.9985 C -907.9614 -3682.9985 -909.6807 -3684.7178 -909.6807 -3686.8385 L -909.6807 -3703.1585 C -909.6807 -3705.2793 -907.9614 -3706.9985 -905.8407 -3706.9985 Z" stroke="black" stroke-linecap="round" stroke-linejoin="round" stroke-width=".25"/>
      </g>
      <g id="Graphic_6402">
        <path d="M -895.8463 -3694.9985 L -902.0807 -3694.9985 C -902.3016 -3694.9985 -902.4807 -3695.1776 -902.4807 -3695.3985 C -902.4807 -3695.6195 -902.3016 -3695.7985 -902.0807 -3695.7985 L -895.8463 -3695.7985 L -897.5635 -3697.5157 C -897.7197 -3697.672 -897.7197 -3697.925 -897.5635 -3698.0814 C -897.4073 -3698.2376 -897.154 -3698.2376 -896.9978 -3698.0814 L -894.5978 -3695.6814 C -894.4416 -3695.525 -894.4416 -3695.272 -894.5978 -3695.1157 L -896.9978 -3692.7157 C -897.154 -3692.5595 -897.4073 -3692.5595 -897.5635 -3692.7157 C -897.7197 -3692.872 -897.7197 -3693.125 -897.5635 -3693.2814 L -895.8463 -3694.9985 Z M -899.2807 -3700.1985 C -899.2807 -3699.9776 -899.4597 -3699.7985 -899.6807 -3699.7985 C -899.9016 -3699.7985 -900.0807 -3699.9776 -900.0807 -3700.1985 C -900.0807 -3701.303 -899.1852 -3702.1985 -898.0807 -3702.1985 L -891.6807 -3702.1985 C -890.5761 -3702.1985 -889.6807 -3701.303 -889.6807 -3700.1985 L -889.6807 -3689.7985 C -889.6807 -3688.694 -890.5761 -3687.7985 -891.6807 -3687.7985 L -898.0807 -3687.7985 C -899.1852 -3687.7985 -900.0807 -3688.694 -900.0807 -3689.7985 C -900.0807 -3690.0195 -899.9016 -3690.1985 -899.6807 -3690.1985 C -899.4597 -3690.1985 -899.2807 -3690.0195 -899.2807 -3689.7985 C -899.2807 -3689.136 -898.7434 -3688.5985 -898.0807 -3688.5985 L -891.6807 -3688.5985 C -891.0179 -3688.5985 -890.4807 -3689.136 -890.4807 -3689.7985 L -890.4807 -3700.1985 C -890.4807 -3700.8613 -891.0179 -3701.3985 -891.6807 -3701.3985 L -898.0807 -3701.3985 C -898.7434 -3701.3985 -899.2807 -3700.8613 -899.2807 -3700.1985 Z M -901.2807 -3688.5985 C -901.0597 -3688.5985 -900.8807 -3688.4195 -900.8807 -3688.1985 C -900.8807 -3687.9776 -901.0597 -3687.7985 -901.2807 -3687.7985 L -903.6807 -3687.7985 C -904.7852 -3687.7985 -905.6807 -3688.694 -905.6807 -3689.7985 L -905.6807 -3700.1985 C -905.6807 -3701.303 -904.7852 -3702.1985 -903.6807 -3702.1985 L -901.2807 -3702.1985 C -901.0597 -3702.1985 -900.8807 -3702.0195 -900.8807 -3701.7985 C -900.8807 -3701.5776 -901.0597 -3701.3985 -901.2807 -3701.3985 L -903.6807 -3701.3985 C -904.3434 -3701.3985 -904.8807 -3700.8613 -904.8807 -3700.1985 L -904.8807 -3689.7985 C -904.8807 -3689.136 -904.3434 -3688.5985 -903.6807 -3688.5985 Z" fill="#5a76a2"/>
      </g>
    </g>
  </g>
</svg>
